X:93
T:Schottische
R:Schottische
O:France
M:C
K:G
B2d2A2c2|G2B2 BAG2|F2A2AGF2|1GABcd4:|2G2B2G4:|\
|:F2A2AGF2|G2B2BAG2|F2A2AGF2|1GABcd4:|2G2B2G4:|
